X:3180
L:1/8
Q:1/8=160
M:6/8
K:Bmin
 B |: AGF E2 E | F/G/AF DED | AGF EFE | B2 A Bcd |"^5" AGF EGE | FEF DFA | dfd edc |1 B2 A Bcd :|2 
 B2 A B2 |: c |"^9" d2 e fed | c2 d ecA | d2 d fdB | fed fga |"^13" d2 e fed | c2 d efg | 
 faf edc |1 B2 A B2 :|2 B2 A Bcd |:"^17" D2 d dcd | E2 e ede | D2 d dcd | B2 A Bcd | 
"^21" D2 d dcd | E2 e efg | agf edc | B2 A Bcd :|"^last time" D6 ||

